symbols/web/auto_read_play/materialsymbolsoutlined/auto_read_play_wght700fill1_48px.svg

<svg xmlns="http://www.w3.org/2000/svg" height="48" width="48"><path d="M20.35 27.45 31.4 20l-11.05-7.4Zm-17.6 17.8V7.45q0-1.9 1.375-3.325Q5.5 2.7 7.45 2.7h33.1q1.9 0 3.325 1.425Q45.3 5.55 45.3 7.45v25.1q0 1.9-1.425 3.3t-3.325 1.4h-29.8Z"/></svg>

<svg xmlns="http://www.w3.org/2000/svg" height="48" width="48"><path d="M20.35 27.45 31.4 20 20.35 12.6ZM2.75 45.25V7.45Q2.75 5.5 4.125 4.1Q5.5 2.7 7.45 2.7H40.55Q42.5 2.7 43.9 4.1Q45.3 5.5 45.3 7.45V32.55Q45.3 34.5 43.9 35.875Q42.5 37.25 40.55 37.25H10.75Z"/></svg>
